svg/u1f407.svg

<svg viewBox="0 0 128 128" xmlns="http://www.w3.org/2000/svg">
  <path d="M93.84,81.17c0,0,5.21-5.21,10.7-3.66c5.49,1.55,9.01,4.36,9.43,10.14s-0.96,10.1-5.35,12.95 c-5.63,3.66-12.39,1.27-12.39,1.27L93.84,81.17z" fill="#ECF0F2"/>
  <path d="M60.19,42.6c0,0,4.08-8.87,3.8-20.84c-0.28-11.97-2.96-18.3-8.96-18.07 c-6.57,0.26-8.61,10.85-8.49,19.62c0.14,10.7,4.04,18.77,4.04,18.77L60.19,42.6z" fill="#A8A8A8"/>
  <path d="M46.68,77.74l-10.04,0.84c0,0,0.33,1.03,0.23,1.97c-0.09,0.94-0.33,3.28-0.33,3.28l12.67,9.95 l24.12-13.42l-6.48-4.41L46.68,77.74z" fill="#A8A8A8"/>
  <path d="M19.46,64.95c-0.49,0-0.92-0.36-0.99-0.86c-0.08-0.55,0.3-1.05,0.85-1.13 c0.11-0.02,2.71-0.38,5.55-0.48c3.14-0.1,3.98-0.13,6.7,0.39c0.54,0.1,0.9,0.63,0.79,1.17c-0.11,0.54-0.63,0.89-1.17,0.79 c-2.49-0.48-3.21-0.46-6.25-0.36c-2.73,0.09-5.31,0.46-5.34,0.46C19.55,64.94,19.51,64.95,19.46,64.95z" fill="#8E9395"/>
  <path d="M18.43,71.89c-0.45,0-0.86-0.31-0.97-0.76c-0.13-0.54,0.2-1.08,0.74-1.21 c0.14-0.04,3.52-0.86,5.6-1.23c2.07-0.38,5.81-0.83,5.97-0.85c0.55-0.08,1.05,0.32,1.11,0.87c0.07,0.55-0.32,1.05-0.87,1.11 c-0.04,0-3.84,0.47-5.85,0.84c-2.01,0.37-5.45,1.2-5.48,1.21C18.58,71.88,18.51,71.89,18.43,71.89z" fill="#8E9395"/>
  <path d="M80.93,86.75L45.55,109c0,0-7.32,8.26-5.68,10c0.87,0.92,4.29,1.74,7.27,1.08 c4.27-0.94,7.98-10,7.98-10s-1.88,12.86,1.03,13.42c2.91,0.56,7.13-0.14,9.01-3.61c1.88-3.47,2.53-7.7,4.22-9.48s3.19-3.1,3.19-3.1 s0.94,1.13,1.5,1.88c0.56,0.75,1.6,1.78,1.6,1.78s-4.39,2.72-5.91,4.88c-1.55,2.21-1.23,4.82,1.03,5.73 c3.28,1.31,17.46-4.41,17.46-4.41l-2.82-31.44L80.93,86.75z" fill="#A8A8A8"/>
  <path d="M75.49,65.54c0,0,0.47-3.38-0.19-6.48c-0.66-3.1-2.53-6.66-2.53-6.66s6.95-2.63,11.92-7.13 c5.52-5,13.7-14.36,14.45-22.06s-3.85-14.64-15.96-7.32S62.26,41.33,62.26,41.33s-9.57-4.04-17.36,0.19S32.98,56.63,32.6,57.38 c-0.38,0.75-5.2,2.94-5.82,9.57c-0.61,6.57,3.06,10.28,8.54,11.73c3.82,1.01,7.32,0.19,7.32,0.19s2.91,3.28,10.42,3.19 c7.51-0.09,13.7-4.04,13.7-4.04s-1.41,5.35-8.17,8.26c-5.07,2.18-11.26,1.88-15.77-0.09s-6.1-4.22-6.1-4.22s-1.6,7.32,0,11.73 s4.69,10.51,4.5,15.11s-3.14,7.98-1.69,9.85c0.81,1.05,4.15,1.93,6.76-0.84c4.41-4.69,4.24-10,5.82-10.23 c3.28-0.47,1.69,9.1,1.6,11.07c-0.09,1.97-0.37,4.46,1.78,4.79c4.6,0.7,5.35-1.03,7.32-5.63c1.97-4.6,1.74-6.99,3.75-9.76 c1.64-2.25,4.41-3.75,4.41-3.75s-0.52-6.24,1.55-9.53c2.06-3.28,6.15-5.87,9.15-4.74c3,1.13-3.61,1.92-5.77,6.62 c-1.58,3.44-1.27,6.99,0.99,9.43c2.25,2.44,4.97,4.5,4.97,4.5s-10.76,3.88-11.73,7.84c-0.7,2.86,0.47,4.18,7.04,3.52 s14.92-2.91,18.21-7.04c3.28-4.13,7.48-17.67,3.99-27.55c-2.82-7.98-4.83-11.5-12.06-16.66C80.09,65.54,75.49,65.54,75.49,65.54z" fill="#DFDFDF"/>
  <path d="M69.86,43.96c-1.76-1.82,1.31-8.26,8.26-15.67c6.95-7.41,11.73-9.76,14.08-8.07 c2.35,1.69-1.03,8.92-7.7,15.96C78.98,42,72.77,46.96,69.86,43.96z" fill="#FFB0B1"/>
  <path d="M47.66,43.58c2.6,0.56,0.35,4.36-1.83,8.02s-3.8,5.56-3.31,7.32c0.49,1.76,4.29,5.14,4.08,9.15 c-0.21,4.01-3.59,8.59-9.92,8.09s-8.87-5.35-7.81-10.63c0.84-4.18,5.14-6.12,6.26-8.17c1.13-2.04,2.99-5.47,4.93-8.31 C42.81,45.06,45.05,43.02,47.66,43.58z" fill="#FFFFFF"/>
  <ellipse cx="56.78" cy="58.82" fill="#2F3030" rx="4.75" ry="3.48" transform="matrix(0.0977 -0.9952 0.9952 0.0977 -7.3089 109.578)"/>
  <path d="M34.62,63.24c0,0,3.14-2.58,4.36-1.31c1.22,1.27-3.71,4.32-3.71,4.32s-0.47,2.3,0.94,2.53 s1.6-2.77,3.14-1.97c1.55,0.8,0.14,4.79-2.58,4.83c-1.62,0.03-2.58-1.17-2.58-1.17s-0.43,0.89-1.88,0.75 c-2.39-0.23-3.52-5.08-1.74-5.02c1.41,0.05,0.56,2.3,1.88,2.3c1.5,0,0.89-2.67,0.89-2.67s-3.28-3.43-1.83-4.65 C32.98,59.96,34.62,63.24,34.62,63.24z" fill="#2F3030"/>
  <path d="M56.53,69.26c-0.12,0-0.23-0.02-0.35-0.06c-0.04-0.01-3.62-1.34-5.92-1.84l-5.44-1.17 c-0.54-0.12-0.88-0.65-0.77-1.19s0.65-0.88,1.19-0.77l5.44,1.17c2.44,0.53,6.04,1.86,6.19,1.92c0.52,0.19,0.78,0.77,0.59,1.29 C57.32,69.01,56.94,69.26,56.53,69.26z" fill="#8E9395"/>
  <path d="M55.4,75.93c-0.18,0-0.36-0.05-0.53-0.15c-0.03-0.02-3.11-1.93-5.96-3.49 c-2.82-1.55-5.45-2.61-5.48-2.62c-0.51-0.21-0.76-0.79-0.55-1.3c0.21-0.51,0.79-0.76,1.3-0.55c0.11,0.04,2.76,1.12,5.69,2.73 c2.9,1.59,6.02,3.53,6.05,3.55c0.47,0.29,0.61,0.91,0.32,1.38C56.07,75.76,55.74,75.93,55.4,75.93z" fill="#8E9395"/>
</svg>

<svg viewBox="0 0 128 128" xmlns="http://www.w3.org/2000/svg">
  <defs/>
  <path d="M93.84,81.17 C93.84,81.17 99.05,75.96 104.54,77.51 C110.03,79.06 113.55,81.87 113.97,87.65 C114.39,93.43 113.01,97.75 108.62,100.6 C102.99,104.26 96.23,101.87 96.23,101.87 L93.84,81.17 Z" fill="#ECF0F2"/>
  <path d="M60.19,42.6 C60.19,42.6 64.27,33.73 63.99,21.76 C63.71,9.79 61.03,3.46 55.03,3.69 C48.46,3.95 46.42,14.54 46.54,23.31 C46.68,34.01 50.58,42.08 50.58,42.08 L60.19,42.6 Z" fill="#A8A8A8"/>
  <path d="M46.68,77.74 L36.64,78.58 C36.64,78.58 36.97,79.61 36.87,80.55 C36.78,81.49 36.54,83.83 36.54,83.83 L49.21,93.78 L73.33,80.36 L66.85,75.95 L46.68,77.74 Z" fill="#A8A8A8"/>
  <path d="M19.46,64.95 C18.97,64.95 18.54,64.59 18.47,64.09 C18.39,63.54 18.77,63.04 19.32,62.96 C19.43,62.94 22.03,62.58 24.87,62.48 C28.01,62.38 28.85,62.35 31.57,62.87 C32.11,62.97 32.47,63.5 32.36,64.04 C32.25,64.58 31.73,64.93 31.19,64.83 C28.7,64.35 27.98,64.37 24.94,64.47 C22.21,64.56 19.63,64.93 19.6,64.93 C19.55,64.94 19.51,64.95 19.46,64.95 Z" fill="#8E9395"/>
  <path d="M18.43,71.89 C17.98,71.89 17.57,71.58 17.46,71.13 C17.33,70.59 17.66,70.05 18.2,69.92 C18.34,69.88 21.72,69.06 23.8,68.69 C25.87,68.31 29.61,67.86 29.77,67.84 C30.32,67.76 30.82,68.16 30.88,68.71 C30.95,69.26 30.56,69.76 30.01,69.82 C29.97,69.82 26.17,70.29 24.16,70.66 C22.15,71.03 18.71,71.86 18.68,71.87 C18.58,71.88 18.51,71.89 18.43,71.89 Z" fill="#8E9395"/>
  <path d="M80.93,86.75 L45.55,109 C45.55,109 38.23,117.26 39.87,119 C40.74,119.92 44.16,120.74 47.14,120.08 C51.41,119.14 55.12,110.08 55.12,110.08 C55.12,110.08 53.24,122.94 56.15,123.5 C59.06,124.06 63.28,123.36 65.16,119.89 C67.04,116.42 67.69,112.19 69.38,110.41 C71.07,108.63 72.57,107.31 72.57,107.31 C72.57,107.31 73.51,108.44 74.07,109.19 C74.63,109.94 75.67,110.97 75.67,110.97 C75.67,110.97 71.28,113.69 69.76,115.85 C68.21,118.06 68.53,120.67 70.79,121.58 C74.07,122.89 88.25,117.17 88.25,117.17 L85.43,85.73 L80.93,86.75 Z" fill="#A8A8A8"/>
  <path d="M75.49,65.54 C75.49,65.54 75.96,62.16 75.3,59.06 C74.64,55.96 72.77,52.4 72.77,52.4 C72.77,52.4 79.72,49.77 84.69,45.27 C90.21,40.27 98.39,30.91 99.14,23.21 C99.89,15.51 95.29,8.57 83.18,15.89 C71.07,23.21 62.26,41.33 62.26,41.33 C62.26,41.33 52.69,37.29 44.9,41.52 C37.11,45.75 32.98,56.63 32.6,57.38 C32.22,58.13 27.4,60.32 26.78,66.95 C26.17,73.52 29.84,77.23 35.32,78.68 C39.14,79.69 42.64,78.87 42.64,78.87 C42.64,78.87 45.55,82.15 53.06,82.06 C60.57,81.97 66.76,78.02 66.76,78.02 C66.76,78.02 65.35,83.37 58.59,86.28 C53.52,88.46 47.33,88.16 42.82,86.19 C38.31,84.22 36.72,81.97 36.72,81.97 C36.72,81.97 35.12,89.29 36.72,93.7 C38.32,98.11 41.41,104.21 41.22,108.81 C41.03,113.41 38.08,116.79 39.53,118.66 C40.34,119.71 43.68,120.59 46.29,117.82 C50.7,113.13 50.53,107.82 52.11,107.59 C55.39,107.12 53.8,116.69 53.71,118.66 C53.62,120.63 53.34,123.12 55.49,123.45 C60.09,124.15 60.84,122.42 62.81,117.82 C64.78,113.22 64.55,110.83 66.56,108.06 C68.2,105.81 70.97,104.31 70.97,104.31 C70.97,104.31 70.45,98.07 72.52,94.78 C74.58,91.5 78.67,88.91 81.67,90.04 C84.67,91.17 78.06,91.96 75.9,96.66 C74.32,100.1 74.63,103.65 76.89,106.09 C79.14,108.53 81.86,110.59 81.86,110.59 C81.86,110.59 71.1,114.47 70.13,118.43 C69.43,121.29 70.6,122.61 77.17,121.95 C83.74,121.29 92.09,119.04 95.38,114.91 C98.66,110.78 102.86,97.24 99.37,87.36 C96.55,79.38 94.54,75.86 87.31,70.7 C80.09,65.54 75.49,65.54 75.49,65.54 Z" fill="#DFDFDF"/>
  <path d="M69.86,43.96 C68.1,42.14 71.17,35.7 78.12,28.29 C85.07,20.88 89.85,18.53 92.2,20.22 C94.55,21.91 91.17,29.14 84.5,36.18 C78.98,42 72.77,46.96 69.86,43.96 Z" fill="#FFB0B1"/>
  <path d="M47.66,43.58 C50.26,44.14 48.01,47.94 45.83,51.6 C43.65,55.26 42.03,57.16 42.52,58.92 C43.01,60.68 46.81,64.06 46.6,68.07 C46.39,72.08 43.01,76.66 36.68,76.16 C30.35,75.66 27.81,70.81 28.87,65.53 C29.71,61.35 34.01,59.41 35.13,57.36 C36.26,55.32 38.12,51.89 40.06,49.05 C42.81,45.06 45.05,43.02 47.66,43.58 Z" fill="#FFFFFF"/>
  <path d="M57.24,54.09 C59.153,54.278 60.496,56.547 60.239,59.157 C59.983,61.768 58.225,63.732 56.312,63.544 C54.399,63.357 53.057,61.088 53.313,58.477 C53.569,55.867 55.328,53.902 57.24,54.09 Z" fill="#2F3030"/>
  <path d="M34.62,63.24 C34.62,63.24 37.76,60.66 38.98,61.93 C40.2,63.2 35.27,66.25 35.27,66.25 C35.27,66.25 34.8,68.55 36.21,68.78 C37.62,69.01 37.81,66.01 39.35,66.81 C40.9,67.61 39.49,71.6 36.77,71.64 C35.15,71.67 34.19,70.47 34.19,70.47 C34.19,70.47 33.76,71.36 32.31,71.22 C29.92,70.99 28.79,66.14 30.57,66.2 C31.98,66.25 31.13,68.5 32.45,68.5 C33.95,68.5 33.34,65.83 33.34,65.83 C33.34,65.83 30.06,62.4 31.51,61.18 C32.98,59.96 34.62,63.24 34.62,63.24 Z" fill="#2F3030"/>
  <path d="M56.53,69.26 C56.41,69.26 56.3,69.24 56.18,69.2 C56.14,69.19 52.56,67.86 50.26,67.36 L44.82,66.19 C44.28,66.07 43.94,65.54 44.05,65 C44.16,64.46 44.7,64.12 45.24,64.23 L50.68,65.4 C53.12,65.93 56.72,67.26 56.87,67.32 C57.39,67.51 57.65,68.09 57.46,68.61 C57.32,69.01 56.94,69.26 56.53,69.26 Z" fill="#8E9395"/>
  <path d="M55.4,75.93 C55.22,75.93 55.04,75.88 54.87,75.78 C54.84,75.76 51.76,73.85 48.91,72.29 C46.09,70.74 43.46,69.68 43.43,69.67 C42.92,69.46 42.67,68.88 42.88,68.37 C43.09,67.86 43.67,67.61 44.18,67.82 C44.29,67.86 46.94,68.94 49.87,70.55 C52.77,72.14 55.89,74.08 55.92,74.1 C56.39,74.39 56.53,75.01 56.24,75.48 C56.07,75.76 55.74,75.93 55.4,75.93 Z" fill="#8E9395"/>
</svg>
